X:1
T:Title
%%score { ( 1 3 ) | ( 2 4 5 ) }
L:1/8
M:4/4
K:G
V:1 treble nm="Grand Piano"
V:3 treble 
V:2 bass 
V:4 bass 
V:5 bass 
V:1
 z4 z2[Q:1/4=100] D2 | G>F G>A B2 c2 | d2 d4 B2 | d>B A>G F2 G2 | A2 z2 z4 | %5
 [FA]>[EG] [FA]>[GB] [Ac]2 [Bd]2 | [ce]2 [ce]4 [FA]2 | [DGB]>[DFA] [DG]>[DFA] [DGB]2 [G^c]2 | %8
[M:11/16] [Fd]/-[Fd]/-[Fd]/-[Fd]/-[Fd]/-[Fd]/-[Fd]/-[Fd]-<[Fd] |[M:5/16] D<GB/ |[M:4/4] d6 z2 | %11
 B2 B2 B>A [B,G]>[GB] | [FA]2 [ce]2 [Bd]2 [Ac]2 | [GB]2 [Ac]2 [Bd]2 z2 | z4 c2 z2 | z8 | [Gd]6 z2 | %17
[M:3/4] [CFA]4 [G,B,DG]2 |] %18
V:2
 z4 z2 [G,B,]2 | [G,B,D]>[G,A,D] [G,B,D]>[G,CD][K:treble] [G,DG]2 [G,A,G]2 | %2
 [G,B,G]2 [G,B,G]4 [G,DG]2 | [G,B,G]>[G,DG][K:bass] [G,CD]>[G,B,D] [A,CD]2 [G,B,D]2 | %4
 F,2 E,2 D,2 [D,F,]2 | [D,D]>[D,D] [D,D]>[D,D] [D,D]2 [D,D]2 | [D,D]2 [D,D]4 [D,D]2 | %7
 G,>D, B,,>D, G,2 [E,A,]2 | %8
[M:11/16] [D,A,]/-[D,A,]/-[D,A,]/-[D,A,]/-[D,A,]/-[D,A,]/-[D,A,]/-[D,A,]-<[D,A,] |[M:5/16] z5/2 | %10
[M:4/4] z4[K:treble] D4- | D4- D>[K:bass]D- D2- | D8- | D6[K:treble] z2 | e6[K:bass] z2 | %15
 z4[K:treble] G2 z2 | B,>C[K:bass] B,>A, G,2 G,2 |[M:3/4] D,4 G,,2 |] %18
V:3
 x8 | x8 | x8 | x8 | [Dc]2- [D-Gc-]2 [DFc]2 D2 | x8 | x8 | x8 |[M:11/16] x11/2 |[M:5/16] x5/2 | %10
[M:4/4] z z/ D/ G>A B>[ce] [Bd]>[Ac] | x8 | x8 | x8 | %14
 z z/ [B,^G]/ [CA]>[DB] E->[E-Bd] [E-Ac]>[E-GB] | [E-Bd]2 [Ec]2 f2 e2 | D>E D>C B,2 [DGB]2 | %17
[M:3/4] x6 |] %18
V:4
 x8 | x4[K:treble] x4 | x8 | x2[K:bass] x6 | x8 | x8 | x8 | x8 |[M:11/16] x11/2 |[M:5/16] x5/2 | %10
[M:4/4] z z/[K:treble] [G,B,]/ [G,B,]>[G,C] G,>G, G,>G, | [G,G]2 [G,G]2 G2[K:bass] G,>G, | %12
 D,2 D,2 D,2 D,2 | G,2 G,2 G,>[K:treble]G B>d | z z/[K:bass] E,/ E,>E, E,>E, E,>E, | %15
 A,2[K:treble] [A,A]2 [_B,^C]2- [B,CG]2 | x2[K:bass] x6 |[M:3/4] x6 |] %18
V:5
 x8 | x4[K:treble] x4 | x8 | x2[K:bass] x6 | x8 | x8 | x8 | x8 |[M:11/16] x11/2 |[M:5/16] x5/2 | %10
[M:4/4] x3/2[K:treble] x13/2 | z4 G,2[K:bass] z2 | x8 | x11/2[K:treble] x5/2 | x3/2[K:bass] x13/2 | %15
 x2[K:treble] x6 | x2[K:bass] x6 |[M:3/4] x6 |] %18

